src/assets/home_icon.svg

<svg width="23" height="23" viewBox="0 0 23 23" fill="none" xmlns="http://www.w3.org/2000/svg">
<path d="M22.1995 11.3234L12.823 1.40062L12.1945 0.735159C12.0513 0.584536 11.8577 0.5 11.6558 0.5C11.454 0.5 11.2603 0.584536 11.1171 0.735159L1.11207 11.3234C0.965334 11.4782 0.849366 11.6625 0.771011 11.8655C0.692657 12.0685 0.653503 12.286 0.655862 12.5053C0.665569 13.4097 1.37657 14.1317 2.23075 14.1317H3.26207V22.5H20.0495V14.1317H21.1027C21.5177 14.1317 21.9083 13.9595 22.202 13.6486C22.3465 13.4961 22.4611 13.3146 22.539 13.1148C22.6169 12.915 22.6566 12.7009 22.6558 12.4847C22.6558 12.0479 22.4932 11.6343 22.1995 11.3234ZM13.0147 20.6501H10.2969V15.4086H13.0147V20.6501ZM18.3024 12.2818V20.6501H14.5678V14.792C14.5678 14.2242 14.1334 13.7643 13.5971 13.7643H9.7145C9.17821 13.7643 8.74384 14.2242 8.74384 14.792V20.6501H5.00925V12.2818H2.67968L11.6582 2.78292L12.2188 3.37644L20.6344 12.2818H18.3024Z" fill="white"/>
</svg>

<svg width="23" height="23" fill="none" xmlns="http://www.w3.org/2000/svg"><path d="m22.2 11.323-9.377-9.922-.629-.666A.743.743 0 0 0 11.656.5a.743.743 0 0 0-.539.235L1.112 11.323c-.147.155-.263.34-.341.543-.078.203-.117.42-.115.64.01.904.72 1.626 1.575 1.626h1.031V22.5H20.05v-8.368h1.054c.415 0 .805-.172 1.099-.483.144-.153.26-.334.337-.534.078-.2.118-.414.117-.63 0-.437-.163-.85-.456-1.162Zm-9.185 9.327h-2.718V15.41h2.718v5.241Zm5.287-8.368v8.368h-3.734v-5.858c0-.568-.435-1.028-.97-1.028H9.713c-.536 0-.97.46-.97 1.028v5.858H5.009v-8.368H2.68l8.98-9.5.56.594 8.415 8.906h-2.332Z" fill="#fff"/></svg>
